img/project-access/thumb-dark.svg

<svg height="395" viewBox="0 0 537 395" width="537" xmlns="http://www.w3.org/2000/svg"><g fill="none"><path d="m0 .938h537v393.345h-537z" fill="#282a29"/><path d="m72 71.6955738c-.5383361.5400656-1.2704052.8437418-2.034.8437418s-1.4956639-.3036762-2.034-.8437418l-21.996-21.9359017c-1.0310043-1.1347607-.9880003-2.8766141.0977522-3.9594001 1.0857526-1.082786 2.8323782-1.1256725 3.9702478-.0974851l21.996 21.9359016c.5415452.5368652.8460534 1.2669342.8460534 2.0284426 0 .7615085-.3045082 1.4915775-.8460534 2.0284427zm-29.52-29.3795082c-3.8326136 3.8254166-9.5988134 4.9711712-14.6089542 2.9028262-5.0101407-2.068345-8.2771627-6.9432999-8.2771627-12.350941s3.267022-10.282596 8.2771627-12.350941c5.0101408-2.0683449 10.7763406-.9225904 14.6089542 2.9028263 5.2291775 5.219358 5.2291775 13.6768715 0 18.8962295zm-14.88-14.7914754c-2.1891724 2.1790574-2.8458167 5.4590277-1.6635203 8.309364 1.1822964 2.8503364 3.9704925 4.7092122 7.0635203 4.7092122s5.8812239-1.8588758 7.0635203-4.7092122c1.1822964-2.8503363.5256521-6.1303066-1.6635203-8.309364-2.9839917-2.9702043-7.8160083-2.9702043-10.8 0zm47.148 32.0840983c-.5383361.5400656-1.2704052.8437418-2.034.8437418s-1.4956639-.3036762-2.034-.8437418l-5.088-5.0740983c-1.0310043-1.1347607-.9880003-2.8766141.0977522-3.9594001 1.0857526-1.082786 2.8323782-1.1256725 3.9702478-.0974852l5.088 5.0740984c.5415452.5368652.8460534 1.2669342.8460534 2.0284426s-.3045082 1.4915774-.8460534 2.0284426zm-56.556-41.5142623c-.5362801.5393472-1.266365.8427332-2.028.8427332s-1.4917199-.303386-2.028-.8427332l-3.06-3.0516393c-1.12334708-1.1169733-1.12603332-2.9306237-.0059999-4.0509015 1.1200334-1.12027793 2.9386527-1.12295693 4.0619999-.0059838l3.06 3.0516394c.5415452.5368652.8460534 1.2669342.8460534 2.0284426s-.3045082 1.4915774-.8460534 2.0284426zm-8.172 16.5027869c-.54375098.5348916-1.27623308.8356778-2.04.8377049h-4.26c-1.51528033-.0976964-2.69419365-1.3518525-2.69419365-2.8661475s1.17891332-2.7684512 2.69419365-2.8661475h4.26c.76271792-.0031826 1.49529155.2967496 2.0357441.8334797.5404525.5367302.8442626 1.2660435.8442559 2.0266842-.0020326.7616801-.3036429 1.4921609-.84 2.0344262zm24.78-24.67639343c-.819081.82663243-2.0582777 1.07683383-3.1352748.63303143-1.0769972-.4438025-1.7776551-1.49336757-1.7727252-2.65549044v-4.30819673c-.0692477-1.06817759.4628864-2.0861314 1.3806626-2.64115907.9177763-.55502767 2.0688985-.55502767 2.9866748 0 .9177762.55502767 1.4499103 1.57298148 1.3806626 2.64115907v4.29622951c.0032028.76271093-.2991976 1.4951054-.84 2.03442623zm238.668 36.59573773c-1.762112 1.5665869-4.047496 2.4201972-6.408 2.3934426-1.824556-.0020889-3.617942-.4718756-5.208-1.3642623-3.307519-2.0090278-5.325955-5.591952-5.325955-9.4540984 0-3.8621463 2.018436-7.4450706 5.325955-9.4540983 3.692729-2.0860327 8.292715-1.6862991 11.568 1.0052459v-1.8908197h4.068v20.7152459h-4.068zm-.132-12.2903279s0 0 0-.0718033c-1.404681-1.8306513-3.580576-2.9089969-5.892-2.92-1.801095-.0072341-3.528055.7146365-4.7857 2.0004259-1.257645 1.2857893-1.938332 3.0254467-1.8863 4.8208856-.019663 1.8244905.700898 3.5794636 1.998002 4.8662629s3.060637 1.9961855 4.889998 1.9670158c2.245055-.0374549 4.344062-1.1172821 5.676-2.92 0 0 0 0 0-.0718033zm30.06 9.7891803c-2.068047 3.0609249-5.539154 4.881649-9.24 4.8467213-2.922511.1081896-5.761904-.9821843-7.856884-3.0171733-2.094979-2.034989-3.262669-4.8369546-3.231116-7.7533185-.06288-2.8752774 1.054771-5.6513798 3.093954-7.6849914 2.039183-2.0336117 4.822891-3.1482082 7.706046-3.0855004 3.499405.0052648 6.785754 1.6773017 8.844 4.4996722l-3.096 2.5968852c-1.303234-1.8997627-3.440743-3.0612776-5.748-3.1234426-3.679361.2072723-6.535329 3.2796579-6.464286 6.9541328.071043 3.6744748 3.043648 6.6347849 6.728286 6.7004574 2.0223-.0077753 3.944395-.8790677 5.28-2.3934427.447341-.4703578 1.173167-.5417226 1.704-.1675409zm23.208 0c-2.068047 3.0609249-5.539154 4.881649-9.24 4.8467213-2.922511.1081896-5.761904-.9821843-7.856884-3.0171733-2.094979-2.034989-3.262669-4.8369546-3.231116-7.7533185-.06288-2.8752774 1.054771-5.6513798 3.093954-7.6849914 2.039183-2.0336117 4.822891-3.1482082 7.706046-3.0855004 3.499405.0052648 6.785754 1.6773017 8.844 4.4996722l-3.12 2.5370492c-1.303234-1.8997628-3.440743-3.0612776-5.748-3.1234427-3.679361.2072723-6.535329 3.279658-6.464286 6.9541328s3.043648 6.6347849 6.728286 6.7004574c2.021626-.0108412 3.942521-.8815896 5.28-2.3934426.447341-.4703579 1.173167-.5417227 1.704-.167541zm7.08-5.0740983c-.074808.0062382-.132261.0687426-.132.1436065.294184 3.4713237 3.214806 6.1338646 6.708 6.1152459 1.883452.0463658 3.710095-.6453466 5.088-1.9267213.508626-.4787134 1.303374-.4787134 1.812 0l1.812 1.7232787c-2.164892 2.5695642-5.396891 4.0001211-8.76 3.8773771-2.872808.0497256-5.641633-1.0714293-7.666514-3.1043309-2.024882-2.0329015-3.130563-4.8015993-3.061486-7.6661609 0-6.2109836 4.236-10.7704918 10.116-10.7704918s9.984 4.6791803 9.984 10.7704918c.018708.2948964.018708.5906773 0 .8855737zm.372-3.5183607h11.004c.037471-.0027628.071985-.0213193.094893-.0510191.022909-.0296997.032041-.067728.025107-.1045547-.648345-2.4931275-2.866652-4.2619497-5.448-4.3440983-2.690044-.0114491-5.058946 1.7640413-5.796 4.3440983-.006934.0368267.002198.074855.025107.1045547.022908.0296998.057422.0482563.094893.0510191zm20.472 8.5685246c.390316-.5686871 1.154375-.7409135 1.752-.394918 1.53051 1.0163211 3.321498 1.5729182 5.16 1.6036065 1.8 0 3.6-.9693442 3.6-2.5968852 0-2.3934426-3.456-2.5131148-6.504-3.5303279-2.52-.8377049-4.8-2.3934426-4.8-5.3254098 0-4.4518033 3.984-6.4862295 7.692-6.4862295 2.525091-.0926238 4.999467.722836 6.972 2.2977049l-2.172 2.9918033c-1.267315-1.0185964-2.836744-1.5907983-4.464-1.627541-2.028 0-3.756.9693443-3.756 2.5968852 0 1.4121312 1.644 1.9027869 3.72 2.3934427 3.264.8377049 7.548 2.2857377 7.548 6.5580327 0 3.9252459-3.6 6.3545902-7.728 6.3545902-3.051461.0569246-6.025506-.959962-8.4-2.8721311zm19.872 0c.385928-.5670237 1.146026-.739539 1.74-.394918 1.532252 1.0126701 3.322144 1.5689264 5.16 1.6036065 1.812 0 3.6-.9693442 3.6-2.5968852 0-2.3934426-3.444-2.5131148-6.492-3.5303279-2.52-.8377049-4.8-2.3934426-4.8-5.3254098 0-4.4518033 3.972-6.4862295 7.692-6.4862295 2.496976-.0756316 4.939185.7390426 6.888 2.2977049l-2.16 2.9918033c-1.267315-1.0185964-2.836744-1.5907983-4.464-1.627541-2.04 0-3.756.9693443-3.756 2.5968852 0 1.4121312 1.632 1.9027869 3.708 2.3934427 3.276.8377049 7.56 2.2857377 7.56 6.5580327 0 3.9252459-3.672 6.3545902-7.728 6.3545902-3.05211.0610491-6.027532-.9563085-8.4-2.8721311zm-267.6 11.1654098h-4.2v-27.4527868h4.068v1.8908196c1.809205-1.5443588 4.122893-2.3744999 6.504-2.3336065 1.781235-.0224309 3.535316.4366022 5.076 1.3283606 3.307519 2.0090278 5.325955 5.5919521 5.325955 9.4540984s-2.018436 7.4450706-5.325955 9.4540984c-1.593806.8938701-3.391447 1.3636887-5.22 1.3642622-2.274562.053274-4.489984-.7257518-6.228-2.19zm0-13.2716393c-.005202.0276825-.005202.056088 0 .0837705 1.334444 1.798202 3.433054 2.8734003 5.676 2.9080328 1.831424.0324372 3.598086-.6755043 4.897815-1.9626655 1.299729-1.2871613 2.021926-3.0440113 2.002185-4.8706132.052032-1.7954389-.628655-3.5350963-1.8863-4.8208856-1.257645-1.2857894-2.984605-2.00766-4.7857-2.0004259-2.312288.0098772-4.490738 1.0828788-5.904 2.9080328-.005202.0276825-.005202.056088 0 .0837705zm33.78-10.4832787c-.533741-.1301052-1.082874-.1864791-1.632-.167541-2.330939.1440584-4.434737 1.4424236-5.604 3.4585246v13.6785246h-4.2v-20.667377h4.056v2.3934426c1.513057-1.8751864 3.828544-2.9231902 6.24-2.8242623.546472.004564 1.091896.0485587 1.632.1316393zm13.44-4.1406557c4.37357-.0242316 8.330019 2.5844952 10.020575 6.6071732 1.690557 4.0226779.781423 8.6650384-2.302579 11.7577965-3.084003 3.0927582-7.733945 4.025256-11.776999 2.3617553-4.043055-1.6635006-6.68093-5.5945453-6.680997-9.9562332-.076092-2.8686632 1.028984-5.6432864 3.058028-7.6780915 2.029045-2.0348051 4.80507-3.1523023 7.681972-3.0924003zm0 17.6277049c2.796251.1271074 5.388875-1.4547706 6.548429-3.9954945s.65286-5.5293724-1.279803-7.5487041c-1.932664-2.0193317-4.902653-2.6632735-7.501573-1.6264629-2.598921 1.0368105-4.30415 3.5458782-4.307053 6.3373828-.085393 1.7830297.565755 3.5230426 1.80162 4.8143286s2.948428 2.0209826 4.73838 2.0189501zm31.08-5.9477049c-.035009 0-.068583.0138691-.093338.0385562-.024755.0246872-.038662.0581702-.038662.0930831.288276 3.4760611 3.210562 6.145332 6.708 6.1272131 1.912495.0461589 3.764784-.6686192 5.148-1.9865573.493789-.4460034 1.246211-.4460034 1.74 0l1.824 1.7352459c-2.162265 2.5661842-5.389044 3.9963897-8.748 3.877377-2.874871.053026-5.646846-1.0666727-7.674363-3.0999458-2.027517-2.0332732-3.134823-4.8038701-3.065637-7.670546 0-6.2109836 4.236-10.7704918 10.116-10.7704918s9.984 4.6791803 9.984 10.7704918v.8855738zm.372-3.5183607h11.004c.037471-.0027628.071985-.0213193.094893-.0510191.022909-.0296997.032041-.067728.025107-.1045547-.644808-2.4954117-2.865196-4.2658932-5.448-4.3440983-2.690044-.0114491-5.058946 1.7640413-5.796 4.3440983-.006934.0368267.002198.074855.025107.1045547.022908.0296998.057422.0482563.094893.0510191zm39.624 8.592459c-2.068047 3.0609249-5.539154 4.881649-9.24 4.8467213-2.922511.1081896-5.761904-.9821843-7.856884-3.0171733-2.094979-2.034989-3.262669-4.8369546-3.231116-7.7533185-.06288-2.8752774 1.054771-5.6513798 3.093954-7.6849914 2.039183-2.0336117 4.822891-3.1482082 7.706046-3.0855004 3.499405.0052648 6.785754 1.6773017 8.844 4.4996722l-3.096 2.5968852c-1.303234-1.8997627-3.440743-3.0612776-5.748-3.1234426-3.679361.2072723-6.535329 3.2796579-6.464286 6.9541328.071043 3.6744748 3.043648 6.6347849 6.728286 6.7004574 2.0223-.0077753 3.944395-.8790677 5.28-2.3934427.442307-.4805122 1.176115-.5526618 1.704-.1675409zm15.42 4.4039345c-1.064905.304229-2.168312.4533663-3.276.4427868-2.21488.108057-4.363867-.7684729-5.868-2.3934426-1.237383-1.557349-1.837618-3.5241635-1.68-5.504918v-9.4780328-3.7457377-5.7322951h4.188v5.7322951h6.636v3.7457377h-6.636v9.6934426c-.106006.9270846.114594 1.8620767.624 2.6447541.761452.7478804 1.800243 1.146657 2.868 1.1009836.775611.0011443 1.548751-.0872026 2.304-.2632787zm-69.288-20.7152459h4.2v18.644918c0 2.7763934-.396 4.4996721-1.32 5.8160656-1.554807 2.2012634-4.104618 3.4883821-6.804 3.4345901-.833283.0034175-1.663725-.097089-2.472-.2991803l.612-2.6926229c.15582-.6154888.733314-1.0297443 1.368-.9813115 1.364202.1263164 2.705425-.4131657 3.6-1.4480328.665349-1.1119257.943772-2.4118892.792-3.6978689zm2.076-10.0404918c.740699.0185669 1.442808.3333535 1.948361.8735369.505552.5401833.772087 1.2603941.739639 1.9985942-.066462 1.5120011-1.344526 2.6868396-2.861054 2.6299742-1.516528-.0568653-2.70252-1.3240985-2.654941-2.8368077.047578-1.5127092 1.310875-2.703327 2.827995-2.6652976z" fill="#f9f9fa" transform="translate(74 161)"/></g></svg>

<svg xmlns="http://www.w3.org/2000/svg" width="537" height="395" viewBox="0 0 537 395">
  <g fill="none">
    <rect width="537" height="393.345" y=".938" fill="#282A29"/>
    <g fill="#F9F9FA" transform="translate(74 161)">
      <path d="M72 71.6955738C71.4616639 72.2356394 70.7295948 72.5393156 69.966 72.5393156 69.2024052 72.5393156 68.4703361 72.2356394 67.932 71.6955738L45.936 49.7596721C44.9049957 48.6249114 44.9479997 46.883058 46.0337522 45.800272 47.1195048 44.717486 48.8661304 44.6745995 50.004 45.7027869L72 67.6386885C72.5415452 68.1755537 72.8460534 68.9056227 72.8460534 69.6671311 72.8460534 70.4286396 72.5415452 71.1587086 72 71.6955738zM42.48 42.3160656C38.6473864 46.1414822 32.8811866 47.2872368 27.8710458 45.2188918 22.8609051 43.1505468 19.5938831 38.2755919 19.5938831 32.8679508 19.5938831 27.4603097 22.8609051 22.5853548 27.8710458 20.5170098 32.8811866 18.4486649 38.6473864 19.5944194 42.48 23.4198361 47.7091775 28.6391941 47.7091775 37.0967076 42.48 42.3160656zM27.6 27.5245902C25.4108276 29.7036476 24.7541833 32.9836179 25.9364797 35.8339542 27.1187761 38.6842906 29.9069722 40.5431664 33 40.5431664 36.0930278 40.5431664 38.8812239 38.6842906 40.0635203 35.8339542 41.2458167 32.9836179 40.5891724 29.7036476 38.4 27.5245902 35.4160083 24.5543859 30.5839917 24.5543859 27.6 27.5245902zM74.748 59.6086885C74.2096639 60.1487541 73.4775948 60.4524303 72.714 60.4524303 71.9504052 60.4524303 71.2183361 60.1487541 70.68 59.6086885L65.592 54.5345902C64.5609957 53.3998295 64.6039997 51.6579761 65.6897522 50.5751901 66.7755048 49.4924041 68.5221304 49.4495176 69.66 50.4777049L74.748 55.5518033C75.2895452 56.0886685 75.5940534 56.8187375 75.5940534 57.5802459 75.5940534 58.3417543 75.2895452 59.0718233 74.748 59.6086885zM18.192 18.0944262C17.6557199 18.6337734 16.925635 18.9371594 16.164 18.9371594 15.402365 18.9371594 14.6722801 18.6337734 14.136 18.0944262L11.076 15.0427869C9.95265292 13.9258136 9.94996668 12.1121632 11.0700001 10.9918854 12.1900335 9.87160747 14.0086528 9.86892847 15.132 10.9859016L18.192 14.037541C18.7335452 14.5744062 19.0380534 15.3044752 19.0380534 16.0659836 19.0380534 16.827492 18.7335452 17.557561 18.192 18.0944262zM10.02 34.5972131C9.47624902 35.1321047 8.74376692 35.4328909 7.98 35.434918L3.72 35.434918C2.20471967 35.3372216 1.02580635 34.0830655 1.02580635 32.5687705 1.02580635 31.0544755 2.20471967 29.8003193 3.72 29.702623L7.98 29.702623C8.74271792 29.6994404 9.47529155 29.9993726 10.0157441 30.5361027 10.5561966 31.0728329 10.8600067 31.8021462 10.86 32.5627869 10.8579674 33.324467 10.5563571 34.0549478 10.02 34.5972131zM34.8 9.92081967C33.980919 10.7474521 32.7417223 10.9976535 31.6647252 10.5538511 30.587728 10.1100486 29.8870701 9.06048353 29.892 7.89836066L29.892 3.59016393C29.8227523 2.52198634 30.3548864 1.50403253 31.2726626.949004858 32.1904389.393977186 33.3415611.393977186 34.2593374.949004858 35.1771136 1.50403253 35.7092477 2.52198634 35.64 3.59016393L35.64 7.88639344C35.6432028 8.64910437 35.3408024 9.38149884 34.8 9.92081967zM273.468 46.5165574C271.705888 48.0831443 269.420504 48.9367546 267.06 48.91 265.235444 48.9079111 263.442058 48.4381244 261.852 47.5457377 258.544481 45.5367099 256.526045 41.9537857 256.526045 38.0916393 256.526045 34.229493 258.544481 30.6465687 261.852 28.637541 265.544729 26.5515083 270.144715 26.9512419 273.42 29.6427869L273.42 27.7519672 277.488 27.7519672 277.488 48.4672131 273.42 48.4672131 273.468 46.5165574zM273.336 34.2262295C273.336 34.2262295 273.336 34.2262295 273.336 34.1544262 271.931319 32.3237749 269.755424 31.2454293 267.444 31.2344262 265.642905 31.2271921 263.915945 31.9490627 262.6583 33.2348521 261.400655 34.5206414 260.719968 36.2602988 260.772 38.0557377 260.752337 39.8802282 261.472898 41.6352013 262.770002 42.9220006 264.067106 44.2087999 265.830639 44.9181861 267.66 44.8890164 269.905055 44.8515615 272.004062 43.7717343 273.336 41.9690164 273.336 41.9690164 273.336 41.9690164 273.336 41.8972131L273.336 34.2262295zM303.396 44.0154098C301.327953 47.0763347 297.856846 48.8970588 294.156 48.8621311 291.233489 48.9703207 288.394096 47.8799468 286.299116 45.8449578 284.204137 43.8099688 283.036447 41.0080032 283.068 38.0916393 283.00512 35.2163619 284.122771 32.4402595 286.161954 30.4066479 288.201137 28.3730362 290.984845 27.2584397 293.868 27.3211475 297.367405 27.3264123 300.653754 28.9984492 302.712 31.8208197L299.616 34.4177049C298.312766 32.5179422 296.175257 31.3564273 293.868 31.2942623 290.188639 31.5015346 287.332671 34.5739202 287.403714 38.2483951 287.474757 41.9228699 290.447362 44.88318 294.132 44.9488525 296.1543 44.9410772 298.076395 44.0697848 299.412 42.5554098 299.859341 42.085052 300.585167 42.0136872 301.116 42.3878689L303.396 44.0154098zM326.604 44.0154098C324.535953 47.0763347 321.064846 48.8970588 317.364 48.8621311 314.441489 48.9703207 311.602096 47.8799468 309.507116 45.8449578 307.412137 43.8099688 306.244447 41.0080032 306.276 38.0916393 306.21312 35.2163619 307.330771 32.4402595 309.369954 30.4066479 311.409137 28.3730362 314.192845 27.2584397 317.076 27.3211475 320.575405 27.3264123 323.861754 28.9984492 325.92 31.8208197L322.8 34.3578689C321.496766 32.4581061 319.359257 31.2965913 317.052 31.2344262 313.372639 31.4416985 310.516671 34.5140842 310.587714 38.188559 310.658757 41.8630338 313.631362 44.8233439 317.316 44.8890164 319.337626 44.8781752 321.258521 44.0074268 322.596 42.4955738 323.043341 42.0252159 323.769167 41.9538511 324.3 42.3280328L326.604 44.0154098zM333.684 38.9413115C333.609192 38.9475497 333.551739 39.0100541 333.552 39.084918 333.846184 42.5562417 336.766806 45.2187826 340.26 45.2001639 342.143452 45.2465297 343.970095 44.5548173 345.348 43.2734426 345.856626 42.7947292 346.651374 42.7947292 347.16 43.2734426L348.972 44.9967213C346.807108 47.5662855 343.575109 48.9968424 340.212 48.8740984 337.339192 48.923824 334.570367 47.8026691 332.545486 45.7697675 330.520604 43.736866 329.414923 40.9681682 329.484 38.1036066 329.484 31.892623 333.72 27.3331148 339.6 27.3331148 345.48 27.3331148 349.584 32.0122951 349.584 38.1036066 349.602708 38.398503 349.602708 38.6942839 349.584 38.9891803L333.684 38.9413115zM334.056 35.4229508L345.06 35.4229508C345.097471 35.420188 345.131985 35.4016315 345.154893 35.3719317 345.177802 35.342232 345.186934 35.3042037 345.18 35.267377 344.531655 32.7742495 342.313348 31.0054273 339.732 30.9232787 337.041956 30.9118296 334.673054 32.68732 333.936 35.267377 333.929066 35.3042037 333.938198 35.342232 333.961107 35.3719317 333.984015 35.4016315 334.018529 35.420188 334.056 35.4229508zM354.528 43.9914754C354.918316 43.4227883 355.682375 43.2505619 356.28 43.5965574 357.81051 44.6128785 359.601498 45.1694756 361.44 45.2001639 363.24 45.2001639 365.04 44.2308197 365.04 42.6032787 365.04 40.2098361 361.584 40.0901639 358.536 39.0729508 356.016 38.2352459 353.736 36.6795082 353.736 33.747541 353.736 29.2957377 357.72 27.2613115 361.428 27.2613115 363.953091 27.1686877 366.427467 27.9841475 368.4 29.5590164L366.228 32.5508197C364.960685 31.5322233 363.391256 30.9600214 361.764 30.9232787 359.736 30.9232787 358.008 31.892623 358.008 33.5201639 358.008 34.9322951 359.652 35.4229508 361.728 35.9136066 364.992 36.7513115 369.276 38.1993443 369.276 42.4716393 369.276 46.3968852 365.676 48.8262295 361.548 48.8262295 358.496539 48.8831541 355.522494 47.8662675 353.148 45.9540984L354.528 43.9914754zM374.4 43.9914754C374.785928 43.4244517 375.546026 43.2519364 376.14 43.5965574 377.672252 44.6092275 379.462144 45.1654838 381.3 45.2001639 383.112 45.2001639 384.9 44.2308197 384.9 42.6032787 384.9 40.2098361 381.456 40.0901639 378.408 39.0729508 375.888 38.2352459 373.608 36.6795082 373.608 33.747541 373.608 29.2957377 377.58 27.2613115 381.3 27.2613115 383.796976 27.1856799 386.239185 28.0003541 388.188 29.5590164L386.028 32.5508197C384.760685 31.5322233 383.191256 30.9600214 381.564 30.9232787 379.524 30.9232787 377.808 31.892623 377.808 33.5201639 377.808 34.9322951 379.44 35.4229508 381.516 35.9136066 384.792 36.7513115 389.076 38.1993443 389.076 42.4716393 389.076 46.3968852 385.404 48.8262295 381.348 48.8262295 378.29589 48.8872786 375.320468 47.869921 372.948 45.9540984L374.4 43.9914754zM106.8 55.1568852L102.6 55.1568852 102.6 27.7040984 106.668 27.7040984 106.668 29.594918C108.477205 28.0505592 110.790893 27.2204181 113.172 27.2613115 114.953235 27.2388806 116.707316 27.6979137 118.248 28.5896721 121.555519 30.5986999 123.573955 34.1816242 123.573955 38.0437705 123.573955 41.9059168 121.555519 45.4888411 118.248 47.4978689 116.654194 48.391739 114.856553 48.8615576 113.028 48.8621311 110.753438 48.9154051 108.538016 48.1363793 106.8 46.6721311L106.8 55.1568852zM106.8 41.8852459C106.794798 41.9129284 106.794798 41.9413339 106.8 41.9690164 108.134444 43.7672184 110.233054 44.8424167 112.476 44.8770492 114.307424 44.9094864 116.074086 44.2015449 117.373815 42.9143837 118.673544 41.6272224 119.395741 39.8703724 119.376 38.0437705 119.428032 36.2483316 118.747345 34.5086742 117.4897 33.2228849 116.232055 31.9370955 114.505095 31.2152249 112.704 31.222459 110.391712 31.2323362 108.213262 32.3053378 106.8 34.1304918 106.794798 34.1581743 106.794798 34.1865798 106.8 34.2142623L106.8 41.8852459zM140.58 31.4019672C140.046259 31.271862 139.497126 31.2154881 138.948 31.2344262 136.617061 31.3784846 134.513263 32.6768498 133.344 34.6929508 133.344 34.6929508 133.344 34.6929508 133.344 34.6929508L133.344 48.3714754 129.144 48.3714754 129.144 27.7040984 133.2 27.7040984 133.2 30.097541C134.713057 28.2223546 137.028544 27.1743508 139.44 27.2732787 139.986472 27.2778427 140.531896 27.3218374 141.072 27.404918L140.58 31.4019672zM154.02 27.2613115C158.39357 27.2370799 162.350019 29.8458067 164.040575 33.8684847 165.731132 37.8911626 164.821998 42.5335231 161.737996 45.6262812 158.653993 48.7190394 154.004051 49.6515372 149.960997 47.9880365 145.917942 46.3245359 143.280067 42.3934912 143.28 38.0318033 143.203908 35.1631401 144.308984 32.3885169 146.338028 30.3537118 148.367073 28.3189067 151.143098 27.2014095 154.02 27.2613115zM154.02 44.8890164C156.816251 45.0161238 159.408875 43.4342458 160.568429 40.8935219 161.727983 38.352798 161.221289 35.3641495 159.288626 33.3448178 157.355962 31.3254861 154.385973 30.6815443 151.787053 31.7183549 149.188132 32.7551654 147.482903 35.2642331 147.48 38.0557377 147.394607 39.8387674 148.045755 41.5787803 149.28162 42.8700663 150.517485 44.1613523 152.230048 44.8910489 154.02 44.8890164zM185.1 38.9413115C185.064991 38.9413115 185.031417 38.9551806 185.006662 38.9798677 184.981907 39.0045549 184.968 39.0380379 184.968 39.0729508 185.256276 42.5490119 188.178562 45.2182828 191.676 45.2001639 193.588495 45.2463228 195.440784 44.5315447 196.824 43.2136066 197.317789 42.7676032 198.070211 42.7676032 198.564 43.2136066L200.388 44.9488525C198.225735 47.5150367 194.998956 48.9452422 191.64 48.8262295 188.765129 48.8792555 185.993154 47.7595568 183.965637 45.7262837 181.93812 43.6930105 180.830814 40.9224136 180.9 38.0557377 180.9 31.8447541 185.136 27.2852459 191.016 27.2852459 196.896 27.2852459 201 31.9644262 201 38.0557377 201 38.2352459 201 38.5463934 201 38.9413115L185.1 38.9413115zM185.472 35.4229508L196.476 35.4229508C196.513471 35.420188 196.547985 35.4016315 196.570893 35.3719317 196.593802 35.342232 196.602934 35.3042037 196.596 35.267377 195.951192 32.7719653 193.730804 31.0014838 191.148 30.9232787 188.457956 30.9118296 186.089054 32.68732 185.352 35.267377 185.345066 35.3042037 185.354198 35.342232 185.377107 35.3719317 185.400015 35.4016315 185.434529 35.420188 185.472 35.4229508zM225.096 44.0154098C223.027953 47.0763347 219.556846 48.8970588 215.856 48.8621311 212.933489 48.9703207 210.094096 47.8799468 207.999116 45.8449578 205.904137 43.8099688 204.736447 41.0080032 204.768 38.0916393 204.70512 35.2163619 205.822771 32.4402595 207.861954 30.4066479 209.901137 28.3730362 212.684845 27.2584397 215.568 27.3211475 219.067405 27.3264123 222.353754 28.9984492 224.412 31.8208197L221.316 34.4177049C220.012766 32.5179422 217.875257 31.3564273 215.568 31.2942623 211.888639 31.5015346 209.032671 34.5739202 209.103714 38.2483951 209.174757 41.9228699 212.147362 44.88318 215.832 44.9488525 217.8543 44.9410772 219.776395 44.0697848 221.112 42.5554098 221.554307 42.0748976 222.288115 42.002748 222.816 42.3878689L225.096 44.0154098zM240.516 48.4193443C239.451095 48.7235733 238.347688 48.8727106 237.24 48.8621311 235.02512 48.9701881 232.876133 48.0936582 231.372 46.4686885 230.134617 44.9113395 229.534382 42.944525 229.692 40.9637705L229.692 31.4857377 229.692 27.74 229.692 22.0077049 233.88 22.0077049 233.88 27.74 240.516 27.74 240.516 31.4857377 233.88 31.4857377 233.88 41.1791803C233.773994 42.1062649 233.994594 43.041257 234.504 43.8239344 235.265452 44.5718148 236.304243 44.9705914 237.372 44.924918 238.147611 44.9260623 238.920751 44.8377154 239.676 44.6616393L240.516 48.4193443zM171.228 27.7040984L175.428 27.7040984 175.428 46.3490164C175.428 49.1254098 175.032 50.8486885 174.108 52.165082 172.553193 54.3663454 170.003382 55.6534641 167.304 55.5996721 166.470717 55.6030896 165.640275 55.5025831 164.832 55.3004918L165.444 52.6078689C165.59982 51.9923801 166.177314 51.5781246 166.812 51.6265574 168.176202 51.7528738 169.517425 51.2133917 170.412 50.1785246 171.077349 49.0665989 171.355772 47.7666354 171.204 46.4806557L171.228 27.7040984zM173.304 17.6636066C174.044699 17.6821735 174.746808 17.9969601 175.252361 18.5371435 175.757913 19.0773268 176.024448 19.7975376 175.992 20.5357377 175.925538 22.0477388 174.647474 23.2225773 173.130946 23.1657119 171.614418 23.1088466 170.428426 21.8416134 170.476005 20.3289042 170.523583 18.816195 171.78688 17.6255772 173.304 17.6636066z"/>
    </g>
  </g>
</svg>
